packages/core/src/svgs/tokens/mono/SRM.svg

<svg width="24" height="24" viewBox="0 0 24 24" fill="none" xmlns="http://www.w3.org/2000/svg">
<path d="M12.0004 18.4701C9.13197 18.4701 6.8064 16.0072 6.8064 12.97C6.8064 10.0144 11.4964 4.80106 11.6898 4.59606L11.9231 4.30884L12.1553 4.59606C12.3492 4.80162 17.1554 10.0149 17.1554 12.9695C17.1943 16.0072 14.8687 18.4701 12.0004 18.4701ZM11.9615 5.3755C11.5353 5.86829 10.6825 6.85329 9.82971 8.08498C8.31863 10.2195 7.50417 11.9022 7.50417 12.9695C7.50417 15.5967 9.51976 17.7305 12.0004 17.7305C14.4808 17.7305 16.4965 15.5967 16.4965 12.9695C16.4965 11.9022 15.6825 10.2195 14.132 8.08498C13.2792 6.89441 12.3876 5.86774 11.9615 5.3755Z" fill="white"/>
<path d="M12.0001 20.2353C8.20165 20.2353 5.1394 16.9926 5.1394 12.9698C5.1394 9.07027 10.295 3.61133 10.5272 3.36467C10.5976 3.30486 10.6869 3.27201 10.7792 3.27201C10.8715 3.27201 10.9608 3.30486 11.0311 3.36467C11.088 3.44196 11.1187 3.53538 11.1187 3.63134C11.1187 3.72729 11.088 3.82071 11.0311 3.898C10.9533 3.93967 5.83719 9.35804 5.83719 12.9703C5.83719 16.582 8.58887 19.4964 12.0001 19.4964C15.4112 19.4964 18.1628 16.582 18.1628 12.9698C18.1628 11.492 17.2711 9.43965 15.5662 7.05914C14.7545 5.92554 13.8743 4.84259 12.9306 3.81633C12.775 3.693 12.775 3.44688 12.9306 3.283C13.0467 3.11856 13.2789 3.11856 13.4339 3.283C13.6667 3.52911 18.8995 9.07027 18.8995 12.9698C18.8606 16.9926 15.7984 20.2353 12.0001 20.2353Z" fill="white"/>
<path d="M12.0002 22C7.42622 22 3.66675 18.0183 3.66675 13.175C3.66675 11.1638 4.63565 8.70047 6.49621 5.82712C7.89177 3.73378 9.24846 2.21543 9.32568 2.13265C9.44232 1.96876 9.67462 1.96876 9.82953 2.13265C9.98508 2.25654 9.98508 2.50266 9.82953 2.66655C9.82953 2.66655 8.434 4.18544 7.07789 6.27879C5.29453 8.98825 4.36452 11.3689 4.36452 13.2161C4.36452 17.69 7.81455 21.3022 12.0002 21.3022C16.1857 21.3022 19.6357 17.6077 19.6357 13.1744C19.6357 11.3278 18.7057 8.94659 16.9229 6.23825C15.5663 4.186 14.1707 2.66711 14.1707 2.62599C14.1139 2.54867 14.0834 2.45525 14.0834 2.35932C14.0834 2.2634 14.1139 2.16997 14.1707 2.09266C14.241 2.03285 14.3303 2 14.4226 2C14.515 2 14.6043 2.03285 14.6746 2.09266C14.8685 2.37933 20.3335 8.37215 20.3335 13.175C20.3335 18.0183 16.6124 22 12.0002 22Z" fill="white"/>
</svg>

<svg xmlns="http://www.w3.org/2000/svg" width="24" height="24" fill="none" viewBox="0 0 24 24">
    <path fill="#fff" d="M12 18.47c-2.868 0-5.194-2.463-5.194-5.5 0-2.956 4.69-8.169 4.884-8.374l.233-.287.232.287c.194.206 5 5.419 5 8.374.04 3.037-2.286 5.5-5.155 5.5m-.039-13.094c-.426.492-1.279 1.477-2.131 2.709-1.511 2.134-2.326 3.817-2.326 4.884 0 2.628 2.016 4.762 4.496 4.762s4.497-2.134 4.497-4.762c0-1.067-.815-2.75-2.365-4.884-.853-1.19-1.744-2.217-2.17-2.71"/>
    <path fill="#fff" d="M12 20.235c-3.798 0-6.86-3.242-6.86-7.265 0-3.9 5.155-9.359 5.387-9.605a.39.39 0 0 1 .504 0 .45.45 0 0 1 0 .533c-.078.042-5.194 5.46-5.194 9.072S8.59 19.496 12 19.496s6.163-2.914 6.163-6.526c0-1.478-.892-3.53-2.597-5.91a34 34 0 0 0-2.635-3.244c-.156-.123-.156-.37 0-.533.116-.164.348-.164.503 0 .233.246 5.466 5.787 5.466 9.687-.04 4.023-3.102 7.265-6.9 7.265"/>
    <path fill="#fff" d="M12 22c-4.574 0-8.333-3.982-8.333-8.825 0-2.011.969-4.475 2.83-7.348a35 35 0 0 1 2.829-3.694c.116-.164.349-.164.504 0 .155.124.155.37 0 .534 0 0-1.396 1.518-2.752 3.612-1.783 2.71-2.713 5.09-2.713 6.937 0 4.474 3.45 8.086 7.635 8.086 4.186 0 7.636-3.694 7.636-8.128 0-1.846-.93-4.227-2.713-6.936-1.357-2.052-2.752-3.57-2.752-3.612a.45.45 0 0 1 0-.533.39.39 0 0 1 .504 0c.193.286 5.659 6.28 5.659 11.082C20.334 18.018 16.612 22 12 22"/>
</svg>
